X: 10161
T: MISS PLATOFF'S WEDDING
C: Nath. Gow.
Q: "Brisk."
%R: slip-jig
B: W. Hamilton "Universal Tune-Book" Vol. 1 Glasgow 1844 p.16 #1
S: http://imslp.org/wiki/Hamilton's_Universal_Tune-Book_(Various)
Z: 2016 John Chambers <jc:trillian.mit.edu>
M: 9/8
L: 1/8
K: C
%%slurgraces yes
%%graceslurs yes
% - - - - - - - - - - - - - - - - - - - - - - - - -
|:\
G2c {d}cBc {d}cBc | {^c}d3 Ad=c TB>AG |\
G2c {d}cBc {d}cBc | dAc BGB c3 ::\
c2g geg geg | {^g}a3 Adc B>AG |
G2c {d}cBc {d}cBc | dAc BGB c3 ::\
{Gc}e3 (e/c/G/c/e) (e/c/G/c/e) | {^c}d3 Ad=c TB>AG |\
{Gc}e3 (e/c/G/c/e) (e/c/G/c/e) | dAc BGB c3 :|
% - - - - - - - - - - - - - - - - - - - - - - - - -

%%sep 1 1 500
%%sep 1 1 500

